X:692
T: "Der Mann"
N: Z1373
O: Europa, Mitteleuropa, Deutschland, Niedersachsen
R: Kinder - Lied
M: 2/4
L: 1/16
K: A
 | A4A4 | A4z2
Bc | d2c2B2A2 | G2F2E4
A4A4 | A4z2
GA | B2A2G2A2 | G2F2E2
G2 | B2A2G2B2 | d3cB2
B2 | A3GA2B2 | c3de4
c4B4 | A8

